X:1
T:Come, Prodigal, Come
T:Come, Prodigal, Come
T:Ira David Sankey
T:Mabel C. Frost, 1881
T:Public Domain Courtesy of the Cyber Hymnal™
C:Ira David Sankey
Z:Public Domain
Z:Courtesy of the Cyber Hymnal™
%%score ( 1 2 ) ( 3 4 )
L:1/8
Q:1/4=92
M:6/8
K:A
V:1 treble 
V:2 treble 
V:3 bass 
V:4 bass 
V:1
 [CE] | [CA]>[CA][CA] [DB][CA][B,G] | [CA]3 [CE]2 [CA] | [Ec]>[Ec][Ec] [Ec][EB][EA] | %4
w: 1.~O|soul in the far a- way|coun- try, A-|wea- ry, and fam- ished, and|
w: 2.~A-|rise! and come back to thy|Fa- ther, He’ll|meet thee while yet on the|
w: 3.~Al-|though thou hast sinned a- gainst|Heav- en, And|weak and un- wor- thy may|
 [EB]3- [EB]2 E | [Ec]>[Ac][Ac] [=GA][GB][Gc] | [Fd]3 [DF]2 ([FB]/[FB]/) | %7
w: sad, * There’s|rest in the home of the|Fa- ther, His *|
w: way; * As-|sured of His ten- der com-|pas- sion, O *|
w: be; * He|of- fers thee full res- to-|ra- tion, And *|
 [EA]>[EG][EA] [Ec][Ec][DB] | [CA]6 ||"^Refrain" [Ec]3 [CA]3 | [DF]>[DG][DA] [CE]2 [CE] | %11
w: wel- come will make thy heart|glad.|||
w: why wilt thou long- er de-|lay?|Come, come,|pro- di- gal, come, And|
w: par- don a- bun- dant and|free.|||
 [FA]>[FA][EA] [^DA][DG][DA] | [Ec]2 [EB] [EB]3 | [Ec]3 [CA]3 [DF]>[DG][DA] [CE]2 [CE] | %14
w: |||
w: wan- der no long- er a-|far from home;|Come, come, pro- di- gal, come, A|
w: |||
 [DF]>[EG][FA] [EA][EG][EA] | [Ac]2 [EB] !fermata![EA]2 |] %16
w: ||
w: wel- come a- waits in thy|Fa- ther’s home.|
w: ||
V:2
 x | x6 | x6 | x6 | x5 E | x6 | x6 | x6 | x6 || x6 | x6 | x6 | x6 | x12 | x6 | x5 |] %16
V:3
 [A,,A,] | [A,,E,]>[A,,E,][A,,E,] [E,G,][E,A,]E, | [A,,E,]3 [A,,A,]2 [A,,E,] | %3
 [A,,A,]>[A,,A,][A,,A,] [A,,A,][B,,G,][C,A,] | [E,G,]3- [E,G,]2 [E,G,] | %5
 A,>[A,E][A,E] [A,C][A,D][A,E] | [D,D]3 [D,A,]2 ([B,,D]/[B,,D]/) | %7
 [E,C]>[E,B,][E,C] [E,A,][E,A,][E,G,] | [A,,A,]6 || [A,,A,]3 [A,,A,]3 | %10
 [D,A,]>[D,A,][F,A,] A,2 A, | [F,C]>[F,C][F,C] [B,,B,][B,,B,][B,,B,] | [E,A,]2 [E,G,] [E,G,]3 | %13
 [A,,A,]3 [A,,A,]3 [D,A,]>[D,A,][F,A,] A,2 [A,,A,] | [D,A,]>[D,A,][D,A,] [C,A,][B,,B,][A,,C] | %15
 [E,E]2 [E,D] !fermata![A,,C]2 |] %16
V:4
 x | x5 E, | x6 | x6 | x6 | A,3/2 x9/2 | x6 | x6 | x6 || x6 | x3 A,2 A, | x6 | x6 | x9 A,2 x | x6 | %15
 x5 |] %16

